X:1
T:Title
%%score { ( 1 3 ) | ( 2 4 ) }
L:1/8
Q:1/4=100
M:4/4
K:Bb
V:1 treble nm="Grand Piano"
V:3 treble 
V:2 bass 
V:4 bass 
V:1
 [DF]>[_D=E] [=DF]>[_EG] [DF]2 [FB]2 | [Ac]>[GB] [FA]>[EG] [DF]4 | G>^F G>[=FA] [FB]2 [Fd]2 | %3
w: Frank~L.~Armstrong * * * * *|||
 z4 c4 | [DF]>[_D=E] [=DF]>[_EG] [DF]2 [FB]2 | [Gc]>[Gc] [G_d]>[Gd] [^F=d]4 | %6
w: |||
 d>d e>d [=Ec]2 [EG]2 | A>G F>c [DB]4 | [DF]>[DF] [DB]>[Ec] [Fd]2 [DB]2 | %9
w: |||
 [B,GB]>[B,FA] [B,FA]>[B,EG] [B,DF]4 | [B,EG]>[A,E^F] [B,EG]>[C=FA] [B,FB]>[B,FB] [Fd]>[Fd] | %11
w: ||
 z4 c4 | [DF]>[DB] [Fd]>[_Af] [Gf]>[Ge] [Gd]>[Gc] | [FB]<[DF] [Fd]>[Ec] [DB]4 |] %14
w: |||
V:2
 [B,,B,]>[B,,B,] [B,,B,]>[B,,B,] [B,,B,]2 [D,B,]2 | [E,B,]>[E,B,] [E,B,]>[E,B,] [B,,B,]4 | %2
 [E,B,E]>[E,A,E] [E,B,E]>[E,C] [D,B,]2 [B,,B,]2 | z4 [A,F]2 z2 | %4
 [B,,B,]>[B,,B,] [B,,B,]>[B,,B,] [B,,B,]2 [D,B,]2 | [E,B,]>[E,B,] [E,A,]>[E,A,] [D,D]4 | %6
 [G,=B,F]>[G,B,F] [G,B,G]>[G,B,F][K:bass] [C,C]2 [C,C]2 | [F,CE]>[F,B,E] [F,A,E]>[F,A,E] [B,,B,]4 | %8
 [B,,B,]>[B,,B,] [B,,B,]>[B,,B,] [B,,B,]2 [B,,B,]2 | E,>E, E,>E, B,,4 | %10
 E,>E, E,>E, D,>D, [B,,B,]>[B,,B,] | z4 [A,F]2 z2 | %12
 [B,,B,]>[B,,B,] [B,,B,]>[D,B,] [E,B,]>[E,C] [E,D]>[E,E] | [F,D]<[F,B,] [F,,F,]>[F,,F,] [B,,F,]4 |] %14
V:3
 x8 | x8 | x8 | [=Ec]>[EG] [EA]>[EB] z2 _E2 | x8 | x8 | x8 | x8 | x8 | x8 | x8 | %11
 [=Ec]>[EG] [EA]>[EB] z2 _E2 | x8 | x8 |] %14
V:4
 x8 | x8 | x8 | [C,B,]>[C,B,] [C,B,]>[C,C] F,2- [F,C]2 | x8 | x8 | x4[K:bass] x4 | x8 | x8 | x8 | %10
 x8 | [C,B,]>[C,B,] [C,B,]>[C,C] F,2- [F,C]2 | x8 | x8 |] %14

